source/img/icon-twitter.svg

<svg width="30" height="24" viewBox="0 0 30 24"  xmlns="http://www.w3.org/2000/svg">
<path d="M29.7691 2.8412C28.6707 3.32304 27.5002 3.64242 26.2799 3.7975C27.5353 3.04797 28.4934 1.87013 28.9439 0.450457C27.7734 1.1483 26.4811 1.64121 25.1039 1.91629C23.9925 0.732915 22.4086 0 20.6806 0C17.328 0 14.629 2.7212 14.629 6.05717C14.629 6.53716 14.6696 6.99869 14.7693 7.43807C9.73486 7.19254 5.28013 4.77964 2.28755 1.10399C1.76509 2.01044 1.45864 3.04797 1.45864 4.16488C1.45864 6.26209 2.53862 8.12114 4.14845 9.19744C3.17554 9.17898 2.22109 8.89652 1.41248 8.4516C1.41248 8.47006 1.41248 8.49406 1.41248 8.51806C1.41248 11.4608 3.51154 13.9051 6.26412 14.4682C5.7712 14.6029 5.23398 14.6675 4.67645 14.6675C4.28876 14.6675 3.89738 14.6454 3.53 14.5641C4.31461 16.9623 6.54104 18.7253 9.1884 18.7826C7.12811 20.3942 4.51214 21.3653 1.68017 21.3653C1.18356 21.3653 0.70726 21.3432 0.230957 21.2822C2.91339 23.0121 6.09243 23.9997 9.5207 23.9997C20.664 23.9997 26.7562 14.7691 26.7562 6.76793C26.7562 6.50024 26.747 6.24178 26.7341 5.98517C27.9359 5.13225 28.9457 4.06703 29.7691 2.8412Z"/>
</svg>

<svg width="30" height="24" xmlns="http://www.w3.org/2000/svg"><path d="M29.77 2.841a12.625 12.625 0 01-3.49.956A6.022 6.022 0 0028.944.45a12.103 12.103 0 01-3.84 1.466 6.054 6.054 0 00-10.475 4.14c0 .481.04.943.14 1.382C9.735 7.193 5.28 4.78 2.288 1.104a6.097 6.097 0 00-.83 3.06 6.064 6.064 0 002.69 5.033 5.98 5.98 0 01-2.736-.745v.066c0 2.943 2.1 5.387 4.852 5.95-.493.135-1.03.2-1.588.2a5.35 5.35 0 01-1.146-.104c.785 2.398 3.011 4.161 5.658 4.219a12.168 12.168 0 01-7.508 2.582c-.496 0-.973-.022-1.449-.083A17.047 17.047 0 009.521 24c11.143 0 17.235-9.23 17.235-17.232 0-.268-.009-.526-.022-.783a12.081 12.081 0 003.035-3.144z"/></svg>
